src/assets/icons/property.svg

<svg width="20" height="20" viewBox="0 0 20 20" fill="none" xmlns="http://www.w3.org/2000/svg">
<path d="M15.8388 3.08736C16.1632 2.9694 16.3305 2.61079 16.2125 2.2864C16.0946 1.962 15.736 1.79465 15.4116 1.91262L5.00031 5.69853V2.49999C5.00031 2.15481 4.72048 1.87499 4.37531 1.87499H3.12531C2.78013 1.87499 2.50031 2.15481 2.50031 2.49999V6.60763L1.66158 6.91262C1.33718 7.03058 1.16984 7.38918 1.2878 7.71358C1.40576 8.03797 1.76436 8.20532 2.08876 8.08736L15.8388 3.08736Z" fill="#999999"/>
<path fill-rule="evenodd" clip-rule="evenodd" d="M2.5161 9.26209L15.0003 4.72238V7.57363L18.3388 8.78762C18.6632 8.90558 18.8305 9.26418 18.7125 9.58858C18.5946 9.91297 18.236 10.0803 17.9116 9.96236L17.5002 9.81275V16.875H18.1253C18.4705 16.875 18.7503 17.1548 18.7503 17.5C18.7503 17.8452 18.4705 18.125 18.1253 18.125H1.87531C1.53013 18.125 1.25031 17.8452 1.25031 17.5C1.25031 17.1548 1.53013 16.875 1.87531 16.875H2.50031V9.26776L2.5161 9.26209ZM15.0003 16.875V8.90371L16.2502 9.35821V16.875H15.0003ZM7.50031 11.875C7.15513 11.875 6.87531 12.1548 6.87531 12.5V16.25C6.87531 16.5952 7.15513 16.875 7.50031 16.875H10.0003C10.3455 16.875 10.6253 16.5952 10.6253 16.25V12.5C10.6253 12.1548 10.3455 11.875 10.0003 11.875H7.50031Z" fill="#999999"/>
</svg>

<svg xmlns="http://www.w3.org/2000/svg" width="20" height="20" fill="#999" xmlns:v="https://vecta.io/nano"><path d="M15.839 3.087c.324-.118.492-.477.374-.801s-.476-.492-.801-.374L5 5.699V2.5c0-.345-.28-.625-.625-.625h-1.25c-.345 0-.625.28-.625.625v4.108l-.839.305c-.324.118-.492.477-.374.801s.477.492.801.374l13.75-5z"/><path fill-rule="evenodd" d="M2.516 9.262L15 4.722v2.851l3.339 1.214c.324.118.492.477.374.801s-.476.492-.801.374l-.411-.15v7.062h.625c.345 0 .625.28.625.625s-.28.625-.625.625H1.875c-.345 0-.625-.28-.625-.625s.28-.625.625-.625H2.5V9.268l.016-.006zM15 16.875V8.904l1.25.454v7.517H15zm-7.5-5c-.345 0-.625.28-.625.625v3.75c0 .345.28.625.625.625H10c.345 0 .625-.28.625-.625V12.5c0-.345-.28-.625-.625-.625H7.5z"/></svg>
